dist/svg/static/pre-heating-large.svg

<svg xmlns="http://www.w3.org/2000/svg" width="48" height="48" viewBox="0 0 48 48"><g fill="none" stroke="currentColor"><path d="M6 44.5h36M30.1 27.5c-1.7 0-3 1.3-3 3s1.3 3 3 3 3-1.3 3-3-1.3-3-3-3zM32.6 32.4c-.1 10.1 3.9 8.6 5.4 7.1s3.1-4.2.9-6.3c-2.2-2.1-5.4-1.4-5.4-1.4l-.7.2M28.7 33.4c-10.1-.1-9.1 3.9-7.6 5.4s4.3 2.9 6.4.7c1.3-1.5 2-3.5 1.7-5.4l-.2-.7M31.5 27.5c-.2-.9-.4-4.2 1.3-5.9 2.2-2.1 5.2-.8 6.7.7 1.8 1.8 3.8 5.2-6.4 5.2h-1.6M26.9 29.5c-1.8.2-3.6-.3-5-1.5-2.1-2.1-.8-5.1.7-6.6 1.3-1.3 4.7-3 4.6 7.1l-.2 1.2"/><g><path d="M19.056 9.998l4.5-5.5 4.5 5.5M23.5 17V5"/></g><g><path d="M36.5 17V5M32.056 9.998l4.5-5.5 4.5 5.5"/></g><g><path d="M10.556 4.998v7.6s-.253 3.716 1.747 7.341S16 26.031 16 30.002s-1.633 10.53-7.946 10.53"/><path d="M6.056 9.998l4.5-5.5 4.5 5.5"/></g></g></svg>

<?xml version="1.0" encoding="UTF-8" standalone="no"?>
<svg width="48px" height="48px" viewBox="0 0 48 48" version="1.1" xmlns="http://www.w3.org/2000/svg" xmlns:xlink="http://www.w3.org/1999/xlink">
    <!-- Generator: sketchtool 46.2 (44496) - http://www.bohemiancoding.com/sketch -->
    <title>pre-heating-large</title>
    <desc>Created with sketchtool.</desc>
    <defs></defs>
    <g id="icons-published" stroke="none" stroke-width="1" fill="none" fill-rule="evenodd">
        <g id="briefing" transform="translate(0.000000, -1434.000000)"></g>
        <g id="pre-heating-large" stroke="#000000">
            <path d="M6,44.5 L42,44.5 L6,44.5 Z M30.1,27.5 C28.4,27.5 27.1,28.8 27.1,30.5 C27.1,32.2 28.4,33.5 30.1,33.5 C31.8,33.5 33.1,32.2 33.1,30.5 C33.1,28.8 31.8,27.5 30.1,27.5 Z M32.6,32.4 C32.5,42.5 36.5,41 38,39.5 C39.5,38 41.1,35.3 38.9,33.2 C36.7,31.1 33.5,31.8 33.5,31.8 L32.8,32 L32.6,32.4 Z M28.7,33.4 C18.6,33.3 19.6,37.3 21.1,38.8 C22.6,40.3 25.4,41.7 27.5,39.5 C28.8,38 29.5,36 29.2,34.1 L29,33.4 L28.7,33.4 Z M31.5,27.5 C31.3,26.6 31.1,23.3 32.8,21.6 C35,19.5 38,20.8 39.5,22.3 C41.3,24.1 43.3,27.5 33.1,27.5 L31.5,27.5 L31.5,27.5 Z M26.9,29.5 C25.1,29.7 23.3,29.2 21.9,28 C19.8,25.9 21.1,22.9 22.6,21.4 C23.9,20.1 27.3,18.4 27.2,28.5 L27,29.7 L26.9,29.5 Z" id="Shape"></path>
            <path d="M19.1,10 L23.6,4.5 L28.1,10 M23.5,17 L23.5,5" id="Shape"></path>
            <path d="M36.5,17 L36.5,5 M32.1,10 L36.6,4.5 L41.1,10" id="Shape"></path>
            <path d="M10.6,5 L10.6,12.6 C10.6,12.6 10.3,16.3 12.3,19.9 C14.3,23.5 16,26 16,30 C16,34 14.4,40.5 8.1,40.5" id="Shape"></path>
            <polyline id="Shape" points="6.1 10 10.6 4.5 15.1 10"></polyline>
        </g>
    </g>
</svg>
